img/refund__01.svg

<svg width="38" height="32" viewBox="0 0 38 32" fill="none" xmlns="http://www.w3.org/2000/svg">
<path d="M8.29409 23.5965C7.97985 23.3332 7.51175 23.3747 7.24857 23.6889L5.39273 25.9046L4.72202 25.3363C4.40926 25.0714 3.94102 25.1101 3.67598 25.4229C3.41102 25.7356 3.44976 26.204 3.76252 26.4689L5.00271 27.5196C5.13727 27.6336 5.30746 27.6955 5.48246 27.6955C5.50354 27.6955 5.52462 27.6946 5.54577 27.6928C5.7426 27.6759 5.92466 27.5814 6.0515 27.4299L8.38664 24.642C8.64967 24.3278 8.60826 23.8597 8.29409 23.5965Z" fill="white"/>
<path d="M36.4282 12.1493H35.3615C34.4681 12.1081 33.7496 11.3471 32.9182 10.4666C32.3627 9.87824 31.7679 9.24827 31.0514 8.78136V2.43685C31.0514 1.31934 30.1422 0.410156 29.0248 0.410156H4.81657C3.69906 0.410156 2.78996 1.31934 2.78996 2.43685V7.58525C2.78996 7.99516 3.12223 8.32744 3.53214 8.32744C3.94205 8.32744 4.27433 7.99516 4.27433 7.58525V2.43685C4.27433 2.14294 4.52267 1.89453 4.81657 1.89453H13.0295V8.46118C13.0295 8.73097 13.176 8.97953 13.4119 9.11037C13.524 9.1725 13.6479 9.20337 13.7717 9.20337C13.9084 9.20337 14.0449 9.16559 14.1651 9.09056L16.9216 7.36772L19.6761 9.09048C19.9049 9.2335 20.1932 9.24122 20.4293 9.11045C20.6654 8.97968 20.8118 8.73112 20.8118 8.46126V1.89453H29.0249C29.3188 1.89453 29.5671 2.14287 29.5671 2.43685V8.15214C29.3257 8.10159 29.0722 8.07124 28.8042 8.06649C28.7998 8.06641 28.7955 8.06641 28.7912 8.06641H24.6094C24.6055 8.06641 24.6017 8.06641 24.5979 8.06649C23.7032 8.08037 23.2435 8.48597 23.0153 8.82374C22.6612 9.34802 22.6284 10.0581 22.9226 10.8223C22.9911 11.0007 23.0746 11.1695 23.1708 11.3281H17.5429C16.3337 11.3281 15.3499 12.3119 15.3499 13.521C15.3499 13.7697 15.3915 14.0088 15.4679 14.2318H15.2709C14.0617 14.2318 13.0779 15.2155 13.0779 16.4248C13.0779 17.634 14.0617 18.6178 15.2709 18.6178H15.4673C15.3913 18.8402 15.3498 19.0785 15.3498 19.3264C15.3498 20.4978 16.2712 21.4578 17.4266 21.5185C17.3497 21.7417 17.308 21.9811 17.308 22.2302C17.308 23.4394 18.2918 24.4232 19.501 24.4232H28.6962C29.0129 24.4232 29.3012 24.3844 29.5669 24.3181V26.6437C29.5669 26.9388 29.3186 27.188 29.0247 27.188H11.8334C11.979 26.6695 12.0585 26.1236 12.0585 25.5592C12.0585 22.2345 9.35379 19.5296 6.02916 19.5296C5.41886 19.5296 4.82971 19.6215 4.27411 19.791V14.258C4.27411 13.8481 3.94183 13.5159 3.53192 13.5159C3.12201 13.5159 2.78973 13.8481 2.78973 14.258V20.4778C1.1141 21.5501 0 23.4264 0 25.5593C0 28.8851 2.70475 31.5909 6.02938 31.5909C8.21609 31.5909 10.1344 30.4201 11.1916 28.6724H29.0249C30.1423 28.6724 31.0515 27.7624 31.0515 26.6437V23.5879C31.2154 23.4708 31.372 23.3507 31.524 23.2335C32.1794 22.7285 32.7454 22.2923 33.6467 22.2923H36.4283C37.2949 22.2923 38.0001 21.5881 38.0001 20.7226V13.7212C38 12.8544 37.2949 12.1493 36.4282 12.1493ZM19.3275 7.12161L17.3153 5.86308C17.0746 5.71264 16.7692 5.71257 16.5284 5.86301L14.5139 7.12205V1.89453H19.3275V7.12161ZM6.02938 30.1066C3.52324 30.1066 1.48438 28.0667 1.48438 25.5593C1.48438 23.053 3.52324 21.0141 6.02938 21.0141C8.53553 21.0141 10.5744 23.053 10.5744 25.5593C10.5744 28.0667 8.53553 30.1066 6.02938 30.1066ZM36.5156 20.7226C36.5156 20.7681 36.4748 20.8079 36.4282 20.8079H33.6466C32.2397 20.8079 31.3781 21.4719 30.6178 22.0578C29.979 22.5501 29.4745 22.9389 28.6963 22.9389H19.5011C19.1104 22.9389 18.7926 22.621 18.7926 22.2302C18.7926 21.8395 19.1104 21.5216 19.5011 21.5216H21.9647C22.3747 21.5216 22.7069 21.1893 22.7069 20.7794C22.7069 20.3695 22.3747 20.0372 21.9647 20.0372H17.5429C17.1522 20.0372 16.8344 19.7185 16.8344 19.3265C16.8344 18.9357 17.1523 18.6179 17.5429 18.6179H21.9647C22.3747 18.6179 22.7069 18.2856 22.7069 17.8757C22.7069 17.4658 22.3747 17.1335 21.9647 17.1335H15.271C14.8803 17.1335 14.5624 16.8156 14.5624 16.4249C14.5624 16.0341 14.8803 15.7162 15.271 15.7162H21.9647C22.3747 15.7162 22.7069 15.3839 22.7069 14.974C22.7069 14.5641 22.3747 14.2318 21.9647 14.2318H17.5429C17.1522 14.2318 16.8344 13.913 16.8344 13.5211C16.8344 13.1304 17.1523 12.8126 17.5429 12.8126H28.5111C28.921 12.8126 29.2533 12.4803 29.2533 12.0704C29.2533 11.6605 28.921 11.3282 28.5111 11.3282H25.8243C25.1455 11.3282 24.5504 10.9208 24.3082 10.2898C24.167 9.923 24.2055 9.71385 24.2456 9.65447C24.2858 9.59495 24.4307 9.55435 24.6157 9.55086H28.7843C30.0359 9.57587 30.9118 10.5036 31.8391 11.4857C32.8091 12.5131 33.8121 13.5754 35.3176 13.6332C35.327 13.6336 35.3365 13.6337 35.346 13.6337H36.4283C36.4757 13.6337 36.5158 13.6738 36.5158 13.7211L36.5156 20.7226Z" fill="white"/>
<path d="M3.53516 11.6642C3.94507 11.6642 4.27734 11.3298 4.27734 10.9199C4.27734 10.51 3.94507 10.1777 3.53516 10.1777C3.12525 10.1777 2.79297 10.51 2.79297 10.9199V10.9242C2.79297 11.334 3.12525 11.6642 3.53516 11.6642Z" fill="white"/>
</svg>

<svg width="38" height="32" fill="none" xmlns="http://www.w3.org/2000/svg"><path d="M8.294 23.596a.742.742 0 00-1.045.093l-1.856 2.216-.671-.569a.742.742 0 00-.96 1.133l1.24 1.05a.742.742 0 001.05-.09l2.335-2.787a.742.742 0 00-.093-1.046z" fill="#fff"/><path d="M36.428 12.15h-1.066c-.894-.042-1.612-.803-2.444-1.683-.555-.589-1.15-1.219-1.867-1.686V2.437A2.029 2.029 0 0029.025.41H4.817A2.03 2.03 0 002.79 2.437v5.148a.742.742 0 101.484 0V2.437a.55.55 0 01.543-.542h8.212V8.46a.742.742 0 001.136.63l2.757-1.723 2.754 1.722a.742.742 0 001.136-.629V1.895h8.213a.55.55 0 01.542.542v5.715a4.06 4.06 0 00-.763-.086h-4.206c-.895.014-1.354.42-1.583.758-.354.524-.387 1.234-.092 1.998.068.179.152.348.248.506h-5.628a2.195 2.195 0 00-2.075 2.904h-.197c-1.21 0-2.193.984-2.193 2.193s.984 2.193 2.193 2.193h.196a2.197 2.197 0 001.96 2.9 2.196 2.196 0 002.074 2.905h9.195c.317 0 .605-.039.87-.105v2.326a.55.55 0 01-.541.544H11.833a6.015 6.015 0 00.226-1.629 6.036 6.036 0 00-6.03-6.03c-.61 0-1.2.093-1.755.262v-5.533a.742.742 0 00-1.484 0v6.22A6.03 6.03 0 000 25.559a6.037 6.037 0 006.03 6.032 6.031 6.031 0 005.162-2.919h17.833a2.03 2.03 0 002.027-2.028v-3.056c.163-.117.32-.237.472-.355.655-.505 1.221-.94 2.123-.94h2.781c.867 0 1.572-.705 1.572-1.57V13.72c0-.867-.705-1.572-1.572-1.572zm-17.1-5.028l-2.013-1.259a.742.742 0 00-.787 0l-2.014 1.259V1.895h4.814v5.227zM6.029 30.107a4.551 4.551 0 01-4.545-4.548 4.55 4.55 0 014.545-4.545 4.55 4.55 0 014.545 4.545 4.551 4.551 0 01-4.545 4.548zm30.487-9.384a.089.089 0 01-.088.085h-2.781c-1.407 0-2.269.664-3.03 1.25-.638.492-1.143.88-1.92.88H19.5a.71.71 0 010-1.416h2.464a.742.742 0 100-1.485h-4.422a.71.71 0 010-1.42h4.422a.742.742 0 100-1.483H15.27a.71.71 0 010-1.418h6.694a.742.742 0 100-1.484h-4.422a.71.71 0 010-1.42H28.51a.742.742 0 000-1.484h-2.687a1.61 1.61 0 01-1.516-1.038c-.141-.367-.102-.576-.062-.636.04-.059.185-.1.37-.103h4.168c1.252.025 2.128.953 3.055 1.935.97 1.027 1.973 2.09 3.479 2.147h1.11c.048 0 .088.04.088.088v7.002z" fill="#fff"/><path d="M3.535 11.664a.744.744 0 000-1.486.742.742 0 00-.742.742v.004c0 .41.332.74.742.74z" fill="#fff"/></svg>
